symbols/web/local_mall/materialsymbolssharp/local_mall_wght700gradN25fill1_20px.svg

<svg xmlns="http://www.w3.org/2000/svg" height="20" width="20"><path d="M1.979 19.396V5.062h3.646q0-1.812 1.271-3.083Q8.167.708 10 .708q1.833 0 3.115 1.271 1.281 1.271 1.281 3.083h3.625v14.334Zm6.25-14.334h3.563q0-.729-.521-1.239-.521-.511-1.25-.511-.75 0-1.271.511-.521.51-.521 1.239ZM10 12.833q1.833 0 3.115-1.271 1.281-1.27 1.281-3.104h-2.604q0 .73-.521 1.25-.521.521-1.25.521-.75 0-1.271-.521-.521-.52-.521-1.25H5.625q0 1.834 1.271 3.104Q8.167 12.833 10 12.833Z"/></svg>

<svg xmlns="http://www.w3.org/2000/svg" height="20" width="20"><path d="M1.979 19.396V5.062H5.625Q5.625 3.25 6.896 1.979Q8.167 0.708 10 0.708Q11.833 0.708 13.115 1.979Q14.396 3.25 14.396 5.062H18.021V19.396ZM8.229 5.062H11.792Q11.792 4.333 11.271 3.823Q10.75 3.312 10.021 3.312Q9.271 3.312 8.75 3.823Q8.229 4.333 8.229 5.062ZM10 12.833Q11.833 12.833 13.115 11.562Q14.396 10.292 14.396 8.458H11.792Q11.792 9.188 11.271 9.708Q10.75 10.229 10.021 10.229Q9.271 10.229 8.75 9.708Q8.229 9.188 8.229 8.458H5.625Q5.625 10.292 6.896 11.562Q8.167 12.833 10 12.833Z"/></svg>
